icons/campaignmonitor.svg

<?xml version="1.0" encoding="UTF-8"?>
<svg width="512px" height="51px" viewBox="0 0 512 51" version="1.1" xmlns="http://www.w3.org/2000/svg" xmlns:xlink="http://www.w3.org/1999/xlink" preserveAspectRatio="xMidYMid">
    <g>
				<path d="M252.241912,0 C250.202992,0 248.633832,0.438180416 248.633832,2.32314572 L248.633832,4.16666153 C248.633832,6.05162683 250.202992,6.53915189 252.241912,6.53915189 C254.286754,6.53915189 255.85394,6.05162683 255.85394,4.16863531 L255.85394,2.32314572 C255.85394,0.438180416 254.286754,0 252.241912,0 M253.710409,10.2281573 L250.832629,10.2281573 C249.878479,10.2281573 249.104682,11.0010703 249.103593,11.9552197 L249.103593,36.6788589 C249.104681,37.6333283 249.87816,38.4068074 250.832629,38.4078951 L253.710409,38.4078951 C254.664558,38.4068059 255.437471,37.633009 255.437471,36.6788589 L255.437471,11.9552197 C255.437471,11.0013895 254.664239,10.2281573 253.710409,10.2281573 M169.672537,9.93998458 C165.486137,9.93998458 162.555066,11.7716577 160.358242,14.7027294 C158.895667,11.7716577 156.067232,9.93998458 152.090054,9.93998458 C147.852336,9.93998458 145.446291,12.2433924 143.667911,14.7027294 L143.667911,11.953246 C143.667912,11.4950392 143.48562,11.0556569 143.161249,10.7320263 C142.836878,10.4083957 142.39708,10.2271088 141.938874,10.2281573 L139.063069,10.2281573 C138.110009,10.2281567 137.337095,11.0001866 137.336006,11.953246 L137.336006,36.6788589 C137.336006,37.633009 138.108919,38.4068059 139.063069,38.4078951 L141.938874,38.4078951 C142.397262,38.4078951 142.836846,38.2256667 143.16079,37.9013526 C143.484734,37.5770386 143.666461,37.1372462 143.665937,36.6788589 L143.665937,22.5544487 C143.665937,18.3147571 146.073955,15.6955436 149.579399,15.6955436 C153.084842,15.6955436 155.179029,18.1035621 155.179029,22.3965459 L155.179029,36.6788589 C155.179028,37.633009 155.951942,38.4068059 156.906091,38.4078951 L159.781897,38.4078951 C160.240284,38.4078951 160.679869,38.2256667 161.003813,37.9013526 C161.327756,37.5770386 161.509483,37.1372462 161.508959,36.6788589 L161.508959,22.5544487 C161.508959,18.1035621 163.968296,15.6955436 167.422421,15.6955436 C170.981157,15.6955436 173.020077,18.0542174 173.020077,22.4458905 L173.022051,36.6768851 C173.020959,37.6310363 173.79299,38.4057173 174.74714,38.4078951 L177.624919,38.4078951 C178.579068,38.4068059 179.351981,37.633009 179.351981,36.6788589 L179.351981,20.5096068 C179.351981,13.7592598 175.690609,9.93998458 169.672537,9.93998458 M436.779029,0 C434.740108,0 433.167001,0.438180416 433.167001,2.32314572 L433.167001,4.16666153 C433.167001,6.05162683 434.740108,6.53915189 436.779029,6.53915189 C438.821897,6.53915189 440.391056,6.05162683 440.391056,4.16863531 L440.391056,2.32314572 C440.391056,0.438180416 438.821897,0 436.779029,0 M438.245551,10.2281573 L435.367772,10.2281573 C434.413942,10.2281573 433.640709,11.0013895 433.640709,11.9552197 L433.640709,36.6788589 C433.640709,37.633009 434.413622,38.4068059 435.367772,38.4078951 L438.245551,38.4078951 C439.198611,38.4057173 439.969758,37.63192 439.968667,36.6788589 L439.968667,11.9552197 C439.968667,10.9999075 439.19889,10.2281573 438.245551,10.2281573 M89.5486816,7.34445644 C92.2711807,7.334448 94.9206171,8.22476412 97.0845952,9.87682344 C97.7445043,10.3848155 98.6793469,10.3222106 99.2656284,9.7307633 L101.480216,7.51617579 C101.814513,7.18138946 101.990483,6.72012201 101.964115,6.24774401 C101.937746,5.77536601 101.711531,5.33654909 101.342051,5.04104857 C98.0011758,2.35452232 93.8376649,0.899314618 89.5506554,0.919571082 C79.1251195,0.919571082 70.6417887,9.40114109 70.6417887,19.8306245 C70.6417887,30.2581342 79.1251195,38.7416617 89.5506554,38.7416617 C93.8375303,38.7611302 98.0007801,37.3060138 101.342051,34.6202005 C101.713104,34.3261623 101.940565,33.8873721 101.966972,33.4146762 C101.99338,32.9419803 101.816209,32.480585 101.480216,32.147047 L99.2636546,29.9344333 C98.6755817,29.3474438 97.7446174,29.2842561 97.0826214,29.7863994 C94.919534,31.4370604 92.2715986,32.3266445 89.5506554,32.3167926 C82.6582121,32.3091761 77.0729879,26.7230689 77.0664611,19.8306245 C77.0751583,12.9401705 82.658229,7.35621696 89.5486816,7.34643022 M280.190717,24.4058597 C280.190717,29.6916577 276.560925,33.252367 272.427818,33.252367 C268.239445,33.252367 264.953092,29.8495605 264.953092,24.4058597 L264.953092,24.301249 C264.953092,18.9661064 268.294711,15.4606631 272.427818,15.4606631 C276.560925,15.4606631 280.190717,19.0174248 280.190717,24.301249 L280.190717,24.4058597 Z M285.369931,10.2281573 L282.494125,10.2281573 C282.035738,10.2276334 281.595945,10.40936 281.271631,10.7333038 C280.947317,11.0572476 280.765088,11.4968321 280.765089,11.9552197 L280.765089,14.7283886 C278.726168,11.8506091 275.846415,9.96761758 271.346184,9.96761758 C264.85835,9.96761758 258.528419,15.0955127 258.528419,24.3032228 L258.528419,24.4078335 C258.528419,33.5661989 264.805058,38.7454125 271.346184,38.7454125 C275.949052,38.7454125 278.828805,36.6334618 280.765089,34.0675405 L280.816407,34.0024056 L280.816407,36.558458 C280.816407,41.3212028 277.139244,45.6812953 272.011349,45.6812953 C268.861187,45.6812953 265.971565,44.2206939 264.526754,41.7672783 C264.031325,40.9549908 262.972241,40.6963979 262.158211,41.1889591 L260.942359,41.9962375 C260.126504,42.4913098 259.864437,43.5528146 260.356145,44.3707016 C262.734557,48.2590594 266.950563,50.8447186 272.287679,50.8447186 C281.448019,50.8447186 287.096993,44.3055667 287.096993,36.4558211 L287.096993,11.9552197 C287.096993,11.0013895 286.323761,10.2281573 285.369931,10.2281573 L285.369931,10.2281573 Z M419.362344,9.96564379 C415.067386,9.96564379 412.505412,12.1427294 410.727032,14.7027294 L410.727032,11.953246 C410.725942,11.0001866 409.953029,10.2281567 408.999969,10.2281573 L406.120216,10.2281573 C405.168698,10.2303316 404.398186,11.0017257 404.397101,11.953246 L404.397101,36.6788589 C404.397101,37.6314716 405.167609,38.4046328 406.120216,38.4078951 L408.999969,38.4078951 C409.951334,38.4078951 410.727032,37.6321974 410.727032,36.4183192 L410.727032,21.5320278 C410.687453,19.3372003 411.835726,17.2919449 413.730181,16.1829467 C415.624635,15.0739485 417.970184,15.0739485 419.864638,16.1829467 C421.759093,17.2919449 422.907366,19.3372003 422.867787,21.5320278 L422.867787,36.6788589 C422.867782,37.6314716 423.638295,38.4046328 424.590902,38.4078951 L427.470655,38.4078951 C428.424805,38.4068059 429.197718,37.633009 429.197718,36.6788589 L429.197718,20.5332922 C429.197718,14.1520432 425.58569,9.96564379 419.362344,9.96564379 M306.505227,9.96564379 C302.21027,9.96564379 299.648296,12.1427294 297.867941,14.7027294 L297.867941,11.953246 C297.866852,11.0001866 297.093939,10.2281567 296.140879,10.2281573 L293.263099,10.2281573 C292.31113,10.2292465 291.539983,11.0012761 291.539983,11.953246 L291.539983,36.6788589 C291.538893,37.63192 292.31004,38.4057173 293.263099,38.4078951 L296.140879,38.4078951 C297.094217,38.4078951 297.867941,37.6321974 297.867941,36.4183192 L297.867941,21.5320278 C297.867941,18.1789056 300.586184,15.4606631 303.939306,15.4606631 C307.292428,15.4606631 310.010671,18.1789056 310.010671,21.5320278 L310.010671,36.6788589 C310.010665,37.6314716 310.781179,38.4046328 311.733786,38.4078951 L314.613539,38.4078951 C315.567688,38.4068059 316.340601,37.633009 316.340601,36.6788589 L316.340601,20.5332922 C316.340601,14.1520432 312.7266,9.96564379 306.505227,9.96564379 M511.238119,10.2913184 C511.179576,10.2638278 511.119621,10.2394504 511.058504,10.2182884 C510.388768,10.0490405 509.700503,9.96416777 509.009715,9.96562487 C505.814607,9.96520859 502.902655,11.7980346 501.521172,14.6790439 L501.521172,11.9552197 C501.521172,11.0013895 500.74794,10.2281573 499.794109,10.2281573 L496.914356,10.2281573 C495.961427,10.230328 495.189464,11.0022901 495.187294,11.9552197 L495.187294,36.6808327 C495.190543,37.6333139 495.961875,38.4046462 496.914356,38.4078951 L499.794109,38.4078951 C500.747489,38.4068074 501.520084,37.634212 501.521172,36.6808327 L501.521172,26.2138473 C501.521172,17.7640709 505.932583,16.2422822 508.476793,16.4495297 C508.97616,16.4890054 509.414341,16.5580879 509.787386,16.6074325 C509.89374,16.6186496 510.000358,16.6272054 510.10714,16.6330918 C510.699275,16.6330918 511.192722,16.2126754 511.305227,15.6540941 L511.940786,11.5880956 C512.023318,11.0472684 511.736261,10.5175036 511.238119,10.2913184 M394.800555,24.3683577 L394.800555,24.4571781 C394.800555,29.2890054 391.437224,33.197101 386.526446,33.2503932 C381.613693,33.197101 378.250362,29.2890054 378.250362,24.4571781 L378.250362,24.2795374 C378.250362,19.4496839 381.613693,15.5396145 386.526446,15.4882961 C391.437224,15.5415883 394.800555,19.4496839 394.800555,24.2815112 L394.800555,24.3683577 Z M386.526446,9.96564379 C378.049036,9.96564379 371.82569,16.400185 371.82569,24.301249 L371.82569,24.4374402 C371.82569,32.3365305 378.049036,38.7730455 386.526446,38.7730455 C395.003855,38.7730455 401.227201,32.3365305 401.227201,24.4374402 L401.227201,24.2992753 C401.227201,16.4021588 395.003855,9.96564379 386.526446,9.96564379 Z M485.478242,24.3683577 L485.478242,24.4571781 C485.478242,29.2890054 482.114911,33.197101 477.204133,33.2503932 C472.29138,33.197101 468.928049,29.2890054 468.928049,24.4571781 L468.928049,24.2795374 C468.928049,19.4496839 472.29138,15.5396145 477.204133,15.4882961 C482.114911,15.5415883 485.478242,19.4496839 485.478242,24.2815112 L485.478242,24.3683577 Z M477.204133,9.96564379 C468.726723,9.96564379 462.503377,16.400185 462.503377,24.301249 L462.503377,24.4374402 C462.503377,32.3365305 468.726723,38.7730455 477.204133,38.7730455 C485.681542,38.7730455 491.904888,32.3365305 491.904888,24.4374402 L491.904888,24.2992753 C491.904888,16.4021588 485.681542,9.96564379 477.204133,9.96564379 Z M366.82017,1.30664611 L363.932521,1.30664611 C363.388095,1.30897289 362.876409,1.56700881 362.550871,2.00339244 L350.652891,18.2555436 L338.756885,2.00339244 C338.430522,1.56694197 337.918235,1.30897148 337.373261,1.30664611 L334.485613,1.30664611 C333.531464,1.30773532 332.758551,2.08153228 332.758551,3.03568234 L332.758551,36.6788589 C332.758551,37.633009 333.531464,38.4068059 334.485613,38.4078951 L337.365366,38.4078951 C338.319516,38.4068059 339.092429,37.633009 339.092429,36.6788589 L339.092429,13.3427911 L349.600864,26.8237471 L349.624549,26.8533539 L349.709422,26.9599383 L349.713369,26.9599383 C349.951286,27.2293867 350.293438,27.3837174 350.652891,27.3837174 C351.012344,27.3837174 351.354497,27.2293867 351.592413,26.9599383 L351.596361,26.9599383 L351.681234,26.8533539 L351.704919,26.8237471 L362.213354,13.3427911 L362.213354,36.6768851 C362.213353,37.6310352 362.986267,38.4048321 363.940416,38.4059214 L366.82017,38.4059214 C367.774319,38.4048321 368.547232,37.6310352 368.547232,36.6768851 L368.547232,3.03568234 C368.547232,2.08153228 367.774319,1.30773532 366.82017,1.30664611 M205.938874,24.4058597 C205.938874,29.6916577 202.309082,33.252367 198.175975,33.252367 C193.987602,33.252367 190.701249,29.8495605 190.701249,24.4058597 L190.701249,24.301249 C190.701249,18.9661064 194.040894,15.4606631 198.175975,15.4606631 C202.309082,15.4606631 205.938874,19.0193986 205.938874,24.301249 L205.938874,24.4058597 Z M199.545783,9.96564379 C195.045551,9.96564379 192.167772,11.8229761 190.126877,14.7027294 L190.126877,11.9552197 C190.127402,11.4970137 189.945613,11.0574237 189.621612,10.7334229 C189.297611,10.4094221 188.858021,10.2276327 188.399815,10.2281573 L185.524009,10.2281573 C185.065803,10.2276327 184.626213,10.4094221 184.302212,10.7334229 C183.978212,11.0574237 183.796422,11.4970137 183.796946,11.9552197 L183.796946,48.2432691 C183.796423,48.7018381 183.978087,49.1418334 184.301974,49.4664608 C184.625861,49.7910882 185.06544,49.9737559 185.524009,49.9742791 L188.399815,49.9742791 C188.858384,49.9737559 189.297963,49.7910882 189.62185,49.4664608 C189.945738,49.1418334 190.127401,48.7018381 190.126877,48.2432691 L190.126877,34.0004318 C192.065135,36.5663531 194.942914,38.7434387 199.545783,38.7434387 C206.086908,38.7434387 212.36552,33.5622513 212.36552,24.4058597 L212.36552,24.301249 C212.36552,15.0935389 206.033616,9.96564379 199.545783,9.96564379 L199.545783,9.96564379 Z M125.043269,24.4058597 C125.043269,29.6916577 121.411503,33.252367 117.278396,33.252367 C113.091997,33.252367 109.805644,29.8495605 109.805644,24.4058597 L109.805644,24.301249 C109.805644,18.9661064 113.145289,15.4606631 117.278396,15.4606631 C121.413477,15.4606631 125.043269,19.0193986 125.043269,24.301249 L125.043269,24.4058597 Z M133.159476,33.9333231 C132.485799,33.9333231 131.939676,33.3872002 131.939676,32.7135235 L131.939676,11.9552197 C131.939676,11.0013895 131.166444,10.2281573 130.212614,10.2281573 L127.334834,10.2281573 C126.381004,10.2281573 125.607772,11.0013895 125.607772,11.9552197 L125.607772,14.7027294 C123.566877,11.8249499 120.689098,9.96564379 116.188867,9.96564379 C109.701033,9.96564379 103.369129,15.0935389 103.369129,24.301249 L103.369129,24.4058597 C103.369129,33.5642251 109.647741,38.7434387 116.188867,38.7434387 C120.9299,38.7434387 124.273493,36.6176715 125.712382,34.0004318 C126.457019,36.6086342 128.840398,38.4072433 131.552814,38.4078951 L133.159476,38.4078951 C133.483329,38.4084192 133.794097,38.2801363 134.02328,38.0513227 C134.252464,37.8225091 134.381251,37.5119488 134.381251,37.1880956 L134.381251,35.1550964 C134.381774,34.8309013 134.25322,34.5198333 134.02398,34.2905925 C133.794739,34.0613516 133.483671,33.932798 133.159476,33.9333231 L133.159476,33.9333231 Z M236.741773,24.4058597 C236.741773,29.6916577 233.110008,33.252367 228.976901,33.252367 C224.790501,33.252367 221.504148,29.8495605 221.504148,24.4058597 L221.504148,24.301249 C221.504148,18.9661064 224.843793,15.4606631 228.976901,15.4606631 C233.110008,15.4606631 236.741773,19.0193986 236.741773,24.301249 L236.741773,24.4058597 Z M244.85798,33.9333231 C244.184303,33.9333231 243.63818,33.3872002 243.63818,32.7135235 L243.63818,11.9552197 C243.63818,11.0013895 242.864948,10.2281573 241.911118,10.2281573 L239.033338,10.2281573 C238.079508,10.2281573 237.306276,11.0013895 237.306276,11.9552197 L237.306276,14.7027294 C235.265382,11.8249499 232.387602,9.96564379 227.887371,9.96564379 C221.399537,9.96564379 215.067633,15.0935389 215.067633,24.301249 L215.067633,24.4058597 C215.067633,33.5642251 221.346245,38.7434387 227.887371,38.7434387 C232.62643,38.7434387 235.971997,36.6176715 237.410887,34.0004318 C238.154366,36.6094278 240.538456,38.4085739 243.251318,38.4078951 L244.85798,38.4078951 C245.531657,38.4078951 246.077781,37.8617723 246.077781,37.1880956 L246.077781,35.1550964 C246.078304,34.8312436 245.950021,34.5204755 245.721207,34.2912916 C245.492393,34.0621078 245.181833,33.9333226 244.85798,33.9333231 L244.85798,33.9333231 Z M459.369005,10.2281573 L453.356854,10.2281573 L453.356854,2.51657672 C453.354023,2.0628545 453.099588,1.64819821 452.696361,1.44016102 C452.293133,1.23212382 451.807757,1.26508909 451.436361,1.52573631 L448.428311,3.63768697 C447.54853,4.23563529 447.02219,5.2306561 447.022976,6.29440247 L447.022976,10.2281573 L444.984056,10.2281573 C444.030353,10.2281517 443.256308,10.9995488 443.253045,11.953246 L443.253045,13.7336006 C443.255222,14.6880691 444.029585,15.4606656 444.984056,15.4606631 L447.022976,15.4606631 L447.022976,30.6627602 C447.022976,36.7321511 450.315251,38.7730455 454.977332,38.7730455 C457.446538,38.7730455 459.984827,37.8177332 459.984827,37.8177332 C459.984827,37.8177332 460.845397,37.5611411 460.626307,36.558458 C460.553277,36.2150193 460.122992,33.8484503 460.122992,33.8484503 C460.018381,33.2661835 459.777579,32.810239 458.95451,32.9345875 C458.549884,32.9997224 457.784056,33.1201234 456.753739,33.1201234 C454.608234,33.114202 453.356854,32.1273092 453.356854,29.6659985 L453.356854,15.4606631 L459.369005,15.4606631 C459.827211,15.4611876 460.266801,15.2793982 460.590802,14.9553974 C460.914803,14.6313966 461.096592,14.1918067 461.096069,13.7336006 L461.096069,11.953246 C461.096069,11.0038551 460.326291,10.2281573 459.369005,10.2281573" fill="#002B45"></path>
				<path d="M50.5683886,4.68971473 C50.2738795,4.26849244 49.8238387,3.98179922 49.3176126,3.89292267 C48.8113866,3.80404613 48.2906025,3.92029459 47.8702236,4.21600617 L0.34541249,37.488111 C0.706984681,38.0058062 1.29890202,38.3139276 1.93036237,38.3131534 L1.93233616,38.3151272 L48.9834387,38.3151272 C50.0532305,38.3151272 50.9197224,37.4466615 50.9197224,36.3768697 L50.9197224,5.7674017 C50.9136413,5.37979713 50.7912385,5.00296141 50.5683886,4.68576715 M3.04555127,4.21403238 C2.45893159,3.80385507 1.69387537,3.7507701 1.05622803,4.07599918 C0.418580686,4.40122825 0.0123752998,5.05170977 0,5.7674017 L0,36.4341095 L22.625505,17.9002621 L3.04752506,4.21008481" fill="#7856FF"></path>
		</g>
</svg>

<svg xmlns="http://www.w3.org/2000/svg" viewBox="0 0 511.955 50.845">
  <path fill="#002b45" d="M252.242 0c-2.039 0-3.608.438-3.608 2.323v1.844c0 1.885 1.569 2.372 3.608 2.372 2.045 0 3.612-.487 3.612-2.37V2.323c0-1.885-1.567-2.323-3.612-2.323m1.468 10.228h-2.877c-.955 0-1.728.773-1.73 1.727V36.68a1.731 1.731 0 0 0 1.73 1.729h2.877a1.729 1.729 0 0 0 1.727-1.73V11.956c0-.954-.773-1.727-1.727-1.727m-84.037-.288c-4.187 0-7.118 1.832-9.315 4.763-1.462-2.931-4.29-4.763-8.268-4.763-4.238 0-6.644 2.303-8.422 4.763v-2.75a1.725 1.725 0 0 0-1.73-1.725h-2.875c-.953 0-1.726.772-1.727 1.725V36.68c0 .954.773 1.728 1.727 1.729h2.876a1.727 1.727 0 0 0 1.727-1.73V22.555c0-4.24 2.408-6.858 5.913-6.858 3.506 0 5.6 2.408 5.6 6.7V36.68c0 .954.773 1.728 1.727 1.729h2.876a1.727 1.727 0 0 0 1.727-1.73V22.555c0-4.45 2.46-6.858 5.913-6.858 3.56 0 5.598 2.358 5.598 6.75l.002 14.23a1.73 1.73 0 0 0 1.725 1.732h2.878a1.729 1.729 0 0 0 1.727-1.73V20.51c0-6.75-3.661-10.57-9.68-10.57M436.78 0c-2.039 0-3.612.438-3.612 2.323v1.844c0 1.885 1.573 2.372 3.612 2.372 2.043 0 3.612-.487 3.612-2.37V2.323c0-1.885-1.57-2.323-3.612-2.323m1.467 10.228h-2.878c-.954 0-1.727.773-1.727 1.727V36.68c0 .954.773 1.728 1.727 1.729h2.878a1.727 1.727 0 0 0 1.723-1.73V11.956c0-.955-.77-1.727-1.723-1.727M89.549 7.344c2.722-.01 5.372.88 7.536 2.533.66.508 1.594.445 2.18-.146l2.215-2.215a1.664 1.664 0 0 0-.138-2.475A18.675 18.675 0 0 0 89.551.92C79.125.92 70.64 9.4 70.64 19.83c0 10.428 8.484 18.912 18.91 18.912 4.287.02 8.45-1.436 11.791-4.122a1.656 1.656 0 0 0 .138-2.473l-2.216-2.213a1.664 1.664 0 0 0-2.181-.148 12.342 12.342 0 0 1-7.532 2.53c-6.893-.007-12.478-5.593-12.485-12.485.01-6.89 5.592-12.475 12.483-12.485m190.642 17.06c0 5.286-3.63 8.846-7.763 8.846-4.189 0-7.475-3.402-7.475-8.846V24.3c0-5.335 3.342-8.84 7.475-8.84 4.133 0 7.763 3.556 7.763 8.84zm5.179-14.178h-2.876a1.727 1.727 0 0 0-1.729 1.727v2.773c-2.039-2.877-4.919-4.76-9.419-4.76-6.488 0-12.818 5.128-12.818 14.335v.105c0 9.158 6.277 14.337 12.818 14.337 4.603 0 7.483-2.112 9.42-4.677l.05-.066v2.556c0 4.763-3.677 9.123-8.805 9.123-3.15 0-6.04-1.46-7.484-3.914a1.727 1.727 0 0 0-2.369-.578l-1.216.807a1.733 1.733 0 0 0-.586 2.375c2.379 3.888 6.595 6.474 11.932 6.474 9.16 0 14.809-6.54 14.809-14.39v-24.5c0-.954-.773-1.727-1.727-1.727zm133.992-.262c-4.295 0-6.857 2.177-8.635 4.737v-2.75A1.727 1.727 0 0 0 409 10.228h-2.88a1.727 1.727 0 0 0-1.723 1.725V36.68c0 .952.77 1.726 1.723 1.729H409c.951 0 1.727-.776 1.727-1.99V21.532a6.071 6.071 0 1 1 12.14 0v15.147c0 .952.771 1.726 1.724 1.729h2.88a1.729 1.729 0 0 0 1.727-1.73V20.534c0-6.381-3.612-10.567-9.836-10.567m-112.857 0c-4.295 0-6.857 2.177-8.637 4.737v-2.75a1.727 1.727 0 0 0-1.727-1.725h-2.878a1.725 1.725 0 0 0-1.723 1.725V36.68a1.727 1.727 0 0 0 1.723 1.729h2.878c.953 0 1.727-.776 1.727-1.99V21.532a6.071 6.071 0 1 1 12.143 0v15.147c0 .952.77 1.726 1.723 1.729h2.88a1.729 1.729 0 0 0 1.727-1.73V20.534c0-6.381-3.614-10.567-9.836-10.567m204.733.325a1.83 1.83 0 0 0-.18-.073 8.29 8.29 0 0 0-2.048-.252 8.304 8.304 0 0 0-7.489 4.713v-2.724c0-.954-.773-1.727-1.727-1.727h-2.88a1.731 1.731 0 0 0-1.727 1.727v24.726a1.733 1.733 0 0 0 1.727 1.727h2.88a1.729 1.729 0 0 0 1.727-1.727V26.214c0-8.45 4.412-9.972 6.956-9.764.5.039.937.108 1.31.157.107.012.213.02.32.026.592 0 1.086-.42 1.198-.979l.636-4.066a1.222 1.222 0 0 0-.703-1.297M394.801 24.368v.09c0 4.831-3.364 8.74-8.275 8.792-4.912-.053-8.276-3.961-8.276-8.793v-.177c0-4.83 3.364-8.74 8.276-8.792 4.911.054 8.275 3.962 8.275 8.794zm-8.275-14.402c-8.477 0-14.7 6.434-14.7 14.335v.136c0 7.9 6.223 14.336 14.7 14.336 8.478 0 14.701-6.436 14.701-14.336V24.3c0-7.897-6.223-14.333-14.7-14.333zm98.952 14.402v.09c0 4.831-3.363 8.74-8.274 8.792-4.913-.053-8.276-3.961-8.276-8.793v-.177c0-4.83 3.363-8.74 8.276-8.792 4.91.054 8.274 3.962 8.274 8.794zm-8.274-14.402c-8.477 0-14.7 6.434-14.7 14.335v.136c0 7.9 6.223 14.336 14.7 14.336 8.478 0 14.7-6.436 14.7-14.336V24.3c0-7.897-6.222-14.333-14.7-14.333zM366.82 1.306h-2.887a1.733 1.733 0 0 0-1.382.697l-11.898 16.253-11.896-16.253a1.737 1.737 0 0 0-1.384-.696h-2.887a1.729 1.729 0 0 0-1.727 1.729v33.643c0 .954.772 1.728 1.727 1.729h2.88a1.729 1.729 0 0 0 1.726-1.73V13.344l10.509 13.48.024.03.084.107h.004a1.253 1.253 0 0 0 1.88 0h.004l.084-.107.024-.03 10.509-13.48v23.334c0 .954.772 1.728 1.727 1.729h2.88a1.729 1.729 0 0 0 1.726-1.73V3.037c0-.954-.772-1.728-1.727-1.73m-160.881 23.1c0 5.286-3.63 8.846-7.763 8.846-4.188 0-7.475-3.402-7.475-8.846V24.3c0-5.335 3.34-8.84 7.475-8.84 4.133 0 7.763 3.558 7.763 8.84zm-6.393-14.44c-4.5 0-7.378 1.857-9.42 4.737v-2.748a1.725 1.725 0 0 0-1.726-1.727h-2.876a1.725 1.725 0 0 0-1.727 1.727v36.288a1.729 1.729 0 0 0 1.727 1.731h2.876a1.73 1.73 0 0 0 1.727-1.73V34c1.938 2.566 4.816 4.743 9.419 4.743 6.54 0 12.82-5.18 12.82-14.337V24.3c0-9.207-6.332-14.335-12.82-14.335zm-74.503 14.44c0 5.286-3.631 8.846-7.765 8.846-4.186 0-7.472-3.402-7.472-8.846V24.3c0-5.335 3.34-8.84 7.472-8.84 4.135 0 7.765 3.558 7.765 8.84zm8.116 9.527a1.22 1.22 0 0 1-1.22-1.22V11.956c0-.954-.773-1.727-1.726-1.727h-2.878c-.954 0-1.727.773-1.727 1.727v2.748c-2.041-2.878-4.919-4.737-9.42-4.737-6.487 0-12.819 5.128-12.819 14.335v.105c0 9.158 6.279 14.337 12.82 14.337 4.74 0 8.084-2.125 9.523-4.743a6.075 6.075 0 0 0 5.84 4.408h1.607a1.22 1.22 0 0 0 1.222-1.22v-2.033a1.22 1.22 0 0 0-1.222-1.222zm103.583-9.527c0 5.286-3.632 8.846-7.765 8.846-4.187 0-7.473-3.402-7.473-8.846V24.3c0-5.335 3.34-8.84 7.473-8.84s7.765 3.558 7.765 8.84zm8.116 9.527a1.22 1.22 0 0 1-1.22-1.22V11.956c0-.954-.773-1.727-1.727-1.727h-2.878c-.953 0-1.727.773-1.727 1.727v2.748c-2.04-2.878-4.918-4.737-9.419-4.737-6.487 0-12.82 5.128-12.82 14.335v.105c0 9.158 6.28 14.337 12.82 14.337 4.74 0 8.085-2.125 9.524-4.743a6.071 6.071 0 0 0 5.84 4.408h1.607a1.22 1.22 0 0 0 1.22-1.22v-2.033a1.22 1.22 0 0 0-1.22-1.222zm214.511-23.705h-6.012V2.517a1.22 1.22 0 0 0-1.92-.991l-3.009 2.112a3.21 3.21 0 0 0-1.405 2.656v3.934h-2.039c-.954 0-1.728.772-1.731 1.725v1.78a1.73 1.73 0 0 0 1.731 1.728h2.039v15.202c0 6.07 3.292 8.11 7.954 8.11 2.47 0 5.008-.955 5.008-.955s.86-.257.641-1.26c-.073-.343-.503-2.71-.503-2.71-.105-.582-.345-1.038-1.168-.913-.405.065-1.17.185-2.201.185-2.146-.006-3.397-.993-3.397-3.454V15.461h6.012a1.725 1.725 0 0 0 1.727-1.727v-1.78c0-.95-.77-1.726-1.727-1.726"/>
  <path fill="#7856ff" d="M50.568 4.69a1.934 1.934 0 0 0-2.698-.474L.345 37.488a1.93 1.93 0 0 0 1.585.825l.002.002h47.051c1.07 0 1.937-.868 1.937-1.938V5.767a1.934 1.934 0 0 0-.352-1.081M3.046 4.214A1.936 1.936 0 0 0 0 5.767v30.667L22.626 17.9 3.048 4.21"/>
</svg>
